!!!OTL: BRUEDER ZU DEN FESTLICHEN GELAGEN
!!!ARE: Europa, Mitteleuropa, Deutschland
!!!SCT: B0552
!!!YEM: Copyright 1995, estate of Helmut Schaffrath.
**kern
*ICvox
*Ivox
*M2/4
*k[f#]
*G:
=1
{4d
4g
=2
4.b
8g
=3
8.e
16d
8e
8f#
=4
4g
4d}
=5
{8.a
16g
8f#
8g
=6
8a
8dd
8b
8g
=7
4f#
4e
=8
4d
4r}
=9
{4d
4g
=10
4.b
8g
=11
8.e
16d
8e
8f#
=12
4g
4d}
=13
{8.a
16g
8f#
8g
=14
8a
8dd
8b
8g
=15
4f#
4e
=16
4d
4r}
=17
{8.cc
16b
8cc
8b
=18
8a
16d
16d
8d
8d}
=19
{8.dd
16ee
8dd
8cc
=20
8b
16g
16g
8g
8g}
=21
{8.b
16a
8b
8cc
=22
4dd
8g
8a
=23
4b
4a
=24
4g
4r}
=25
{8.cc
16b
8cc
8b
=26
8a
16d
16d
8d
8d}
=27
{8.dd
16ee
8dd
8cc
=28
8b
16g
16g
8g
8g}
=29
{8.b
16a
8b
8cc
=30
4dd
8g
8a
=31
4b
4a
=32
4g
4r}
==
!!!AGN: Studenten -, Trink - Lied
!!!ONB: ESAC (Essen Associative Code) Database: BOEHME
!!!AMT: simple duple
!!!AIN: vox
!!!EED: Helmut Schaffrath
!!!EEV: 1.0
*-
